X:178
%%pagewidth 8in
%%vocalfont Baskerville10Pro 13
T:When Daphne did from Phoebus fly
M:3/4
L:1/8
K:Eb
%%score 1 2
V:1 clef-treble
V:2 clef-bass octave=-1
[V:1](CD)|E4F2 & C6-|G4[Ec]2 & C4x2|[D=B]3 [Ec][Fd]2|[Ec]4(GA)|B2G2E2 & B,6|
w:When* Daph-ne from fair Phoeb-us did fly, The* west wind most
w:Her* silk-en scarf scarce shadow'd* her eyes, The* God cried, O
[V:2]z2|C4 D2|E4 C2|G,6|A,4E,F,|G,6|
[V:1]F2D2B,2 & B,4x2|C3E [=B,D]2|C4:||cd|[Ge]4[Ge]2|[Gd]4[Dd]2|(c3d)c2 & E4F2|
w:sweet-ly did blow in her face,|| Stay, Nymph, stay, Nymph, cries* A-
w:pi-ty! and held her in chace.|| Lion nor ti-ger doth* thee
[V:2]x4G2 & D,4E,2|A4x2 & A,3F,G,2|C,4:||z2|c4c2|B4B2|A4A2|
[V:1][D=B]2[=B,G]4|G3AG2 &_B,6|(F3G)E2 &C4B,2|(E3F)D2|E4:||(GA)|B3ABc &E4E2|
w:pol-lo, Tar-ry, and turn* thee, Sweet* Nymph, stay,|||
w:fol-low, Turn thy fair eyes,* and look* this way. O* turn, O pretty*
[V:2]G6|E6|A4G2|A4A2 &F4B,2|G4 &E4:||EF|G3F GA|
[V:1][G2(B2]G2)E2|B3c [Ad][Ge] &E4x2|[F(f]2d2)B2|G3FE2|D4c2|(c3d)=B2 & F4F2|
w:sweet,* And let our red lips meet:* O pi-ty me, Daph-ne! pi-*ty
[V:2]E6|G4FE|D6|[EB]4[GB]2|[FA]4[EG]2|D4G,2|
[V:1]c4 (GA) &E6|B2G2E2 & B,6|(F2D2)B,2 & B,4x2|(C3E)[=B,D]2|C4||
w:me, O* pi-ty me, Daph-*ne, pi-*ty me!
[V:2]A,4E,F,|G,6|D,4G2 &x4E,2|A4x2 &A,3F,G,2|C,4||

